X:1
T:C'est toi Seigneur le pain rompu-all
T:C'est toi Seigneur le pain rompu-all
T:G.Kirbye
T:JP Lecot
C:G.Kirbye
Z:JP Lecot
%%score [ 1 2 3 4 ]
L:1/8
Q:1/4=90
M:2/2
K:F
V:1 treble nm="Soprano" snm="S."
V:2 treble nm="Alto" snm="A."
V:3 treble-8 nm="Tenor" snm="T."
V:4 bass nm="Bass" snm="B."
V:1
 F4 | A6 c2 | G4 F4 | B4 B4 | A4 G4 | A4 c4 | c4 B4 | c8 | z4 A4 | d6 c2 | B4 A4 | G4 F4 | E4 A4 | %13
 G4 F4 | F4 E4 | F8 |] %16
V:2
 C4 | F4 F4 | E4 D4 | D4 F4 | F4 E4 | F4 G4 | G4 D4 | E8 | z4 F4 | F6 F2 | F4 F4 | E4 D4 | %12
 ^C4 =C4 | E4 D4 | D4 C4 | C8 |] %16
V:3
 A4 | c6 c2 | c4 A4 | B4 d4 | c4 c4 | c4 c4 | d4 d4 | c8 | z4 c4 | B6 A2 | B4 c4 | c4 A4 | A4 A4 | %13
 c4 A4 | B4 G4 | A8 |] %16
V:4
 F,4 | F,4 F,4 | C,4 D,4 | B,,4 B,,4 | F,4 C,4 | F,4 E,4 | G,4 G,4 | C,8 | z4 F,4 | B,,6 F,2 | %10
w: C'est|toi Sei-|gneur, le|pain rom-|pu, li-|vré pour|no- tre|vie.|C'est|toi, Sei-|
 D,4 F,4 | C,4 D,4 | A,,4 F,4 | C,4 D,4 | B,,4 C,4 | F,8 |] %16
w: gneur, notre|u- ni-|té. Jé-|sus res-|cu- ci-|té!|

